src/assets/digi3.svg

<svg width="100" height="100" viewBox="0 0 100 100" fill="none" xmlns="http://www.w3.org/2000/svg">
<g filter="url(#filter0_d_294_30039)">
<path fill-rule="evenodd" clip-rule="evenodd" d="M43.7483 0.278853C34.033 1.65188 24.9976 6.06856 17.9594 12.8844C8.95137 21.6082 4 33.3449 4 45.9745C4 53.3332 5.45019 59.6626 8.63002 66.1819C15.5346 80.338 29.0074 89.8726 44.8113 91.7868C47.4972 92.1123 53.0615 92.057 55.9819 91.6762C69.2302 89.9481 81.0792 82.5095 88.5022 71.2608C93.432 63.7903 96 55.1299 96 45.9745C96 38.6414 94.5388 32.2637 91.37 25.767C84.8961 12.4937 72.5715 3.18332 57.9906 0.550951C54.6877 -0.0453311 47.0709 -0.190781 43.7483 0.278853ZM46.4366 18.5431C36.0842 19.9672 27.1181 27.3285 23.8767 37.0653C22.7818 40.3542 22.4769 42.295 22.4769 45.9745C22.4769 53.6922 25.0842 59.9952 30.5355 65.4553C38.0765 73.0082 48.7146 75.5061 58.9026 72.116C62.9046 70.7843 66.2395 68.6805 69.4645 65.4534C74.9141 59.9995 77.5231 53.6931 77.5231 45.9745C77.5231 38.2559 74.9141 31.9494 69.4645 26.4956C65.3983 22.4266 60.9206 20.011 55.2911 18.8498C53.2049 18.4195 48.5166 18.2572 46.4366 18.5431ZM47.6244 26.646C45.3961 27.1288 43.6097 28.1277 41.8848 29.8554C39.5634 32.1807 38.5613 34.5961 38.5566 37.8785C38.5527 40.5472 39.3952 43.158 40.7994 44.8282L41.341 45.4722L40.3685 46.4258C35.9676 50.7404 36.0227 57.2731 40.4977 61.7514C44.6284 65.8852 51.2986 66.7393 56.8028 63.8389C58.4683 62.9615 60.7128 60.7119 61.6037 59.0276C63.8633 54.7553 63.0906 49.8169 59.6315 46.4258L58.659 45.4722L59.2006 44.8282C60.6048 43.158 61.4473 40.5472 61.4434 37.8785C61.4387 34.5961 60.4366 32.1807 58.1152 29.8554C56.3614 28.099 54.5931 27.1247 52.2676 26.6339C50.4302 26.2462 49.4577 26.2486 47.6244 26.646ZM48.9936 33.4256C45.411 34.3043 44.2485 38.8357 46.9739 41.2998C50.0797 44.1078 54.8401 41.6605 54.4901 37.4357C54.2694 34.7737 51.5592 32.7964 48.9936 33.4256ZM48.0138 49.7348C41.8072 51.4069 43.4172 58.5638 50 58.5638C52.4516 58.5638 54.4458 57.5671 55.4025 55.8638C57.4656 52.1904 52.9138 48.4147 48.0138 49.7348Z" fill="#00AACB"/>
</g>
<defs>
<filter id="filter0_d_294_30039" x="0" y="0" width="100" height="100" filterUnits="userSpaceOnUse" color-interpolation-filters="sRGB">
<feFlood flood-opacity="0" result="BackgroundImageFix"/>
<feColorMatrix in="SourceAlpha" type="matrix" values="0 0 0 0 0 0 0 0 0 0 0 0 0 0 0 0 0 0 127 0" result="hardAlpha"/>
<feOffset dy="4"/>
<feGaussianBlur stdDeviation="2"/>
<feComposite in2="hardAlpha" operator="out"/>
<feColorMatrix type="matrix" values="0 0 0 0 0 0 0 0 0 0 0 0 0 0 0 0 0 0 0.25 0"/>
<feBlend mode="normal" in2="BackgroundImageFix" result="effect1_dropShadow_294_30039"/>
<feBlend mode="normal" in="SourceGraphic" in2="effect1_dropShadow_294_30039" result="shape"/>
</filter>
</defs>
</svg>

<svg xmlns="http://www.w3.org/2000/svg" width="100" height="100" fill="none" viewBox="0 0 100 100"><g filter="url(#a)"><path fill="#00aacb" fill-rule="evenodd" d="M43.748.279A46.4 46.4 0 0 0 17.96 12.884C8.951 21.608 4 33.344 4 45.974c0 7.36 1.45 13.689 4.63 20.208 6.905 14.156 20.377 23.69 36.181 25.605 2.686.325 8.25.27 11.17-.11 13.25-1.729 25.098-9.168 32.521-20.416C93.432 63.79 96 55.13 96 45.975c0-7.334-1.461-13.711-4.63-20.208C84.896 12.494 72.571 3.183 57.99.551 54.689-.045 47.07-.191 43.749.279m2.689 18.264c-10.353 1.424-19.319 8.785-22.56 18.522-1.095 3.29-1.4 5.23-1.4 8.91 0 7.717 2.607 14.02 8.058 19.48 7.542 7.553 18.18 10.051 28.368 6.661 4.002-1.332 7.337-3.436 10.562-6.663 5.45-5.454 8.058-11.76 8.058-19.479s-2.609-14.025-8.058-19.478c-4.067-4.07-8.544-6.485-14.174-7.646-2.086-.43-6.774-.593-8.854-.307m1.187 8.103c-2.228.483-4.014 1.482-5.74 3.21-2.32 2.325-3.323 4.74-3.327 8.023-.004 2.668.838 5.279 2.242 6.95l.542.643-.973.954c-4.4 4.314-4.345 10.847.13 15.325 4.13 4.134 10.8 4.988 16.305 2.088 1.665-.877 3.91-3.127 4.8-4.811 2.26-4.273 1.488-9.211-1.971-12.602l-.973-.954.542-.644c1.404-1.67 2.246-4.28 2.242-6.95-.004-3.282-1.006-5.697-3.328-8.023-1.754-1.756-3.522-2.73-5.847-3.221-1.838-.388-2.81-.385-4.644.012m1.37 6.78c-3.583.878-4.745 5.41-2.02 7.874 3.106 2.808 7.866.36 7.516-3.864-.22-2.662-2.93-4.64-5.496-4.01m-.98 16.309c-6.207 1.672-4.597 8.829 1.986 8.829 2.452 0 4.446-.997 5.403-2.7 2.063-3.674-2.49-7.45-7.39-6.13" clip-rule="evenodd"/></g><defs><filter id="a" width="100" height="100" x="0" y="0" color-interpolation-filters="sRGB" filterUnits="userSpaceOnUse"><feFlood flood-opacity="0" result="BackgroundImageFix"/><feColorMatrix in="SourceAlpha" result="hardAlpha" values="0 0 0 0 0 0 0 0 0 0 0 0 0 0 0 0 0 0 127 0"/><feOffset dy="4"/><feGaussianBlur stdDeviation="2"/><feComposite in2="hardAlpha" operator="out"/><feColorMatrix values="0 0 0 0 0 0 0 0 0 0 0 0 0 0 0 0 0 0 0.25 0"/><feBlend in2="BackgroundImageFix" result="effect1_dropShadow_294_30039"/><feBlend in="SourceGraphic" in2="effect1_dropShadow_294_30039" result="shape"/></filter></defs></svg>
